X:1
T:Title
%%score 1 { 2 | 3 }
L:1/8
Q:1/4=110
M:4/4
K:F
V:1 treble nm="Grand Piano, Soprano"
V:2 treble nm="Choir Pad, Ewyas Harold, 66.86.47"
V:3 bass 
V:1
 [FA]2 [FB]2 [FA]2 [FG]2 | [FG]2 [EG]4 [CF]2- | [CF]2 [DF]2 [Fd]2 [Fc]2 | [EB]2 [FA]6 | %4
w: By~Samuel~Sebastian~Wesley,~1864 * * *||||
 [Fc]2 [EB]2 [FA]2 [Fd]2 | [Fc]2 [Fc]2 [EB]2 [CA]2 | [^CG]2 [DF]2 [DG]2 [=CF]2 | [CE]2 [CF]6- | %8
w: ||||
 [CF]2 [CF]2- [CF][CF] [CF]2 | [CF]2 [Ec]2- [Ec][Ec] [Ec]2 | [Ec]2 [Ff]4 [Fd]2- | %11
w: |||
 [Fd]2 [Fd]4 [Fc]2- | [Fc]2 [EA]6 | [^CG]2 [DF]4 [DG]2- | [DG]2 [CF]4 [CE]2- | [CE]2 [CF]6- | %16
w: |||||
 [CF]2 z2 z4 |] %17
w: |
V:2
 C2 D2 C2 =B,2 | =B,2 C4 C2- | C2[K:bass] B,2 B,2 A,2 | C2 C6 | C2 C2 C2 B,2 | C2 D2 C2 C2 | %6
 A,2 A,2 B,2 A,2 | G,2 A,6- | A,2 A,2- A,A, A,2 | A,2 G,2- G,G, G,2 | C2 D4 B,2- | B,2 B,4 A,2- | %12
 A,2 ^C6 | A,2 A,4 B,2- | B,2 A,4 G,2- | G,2 A,6- | A,2 z2 z4 |] %17
V:3
 F,2 F,2 F,2 D,2 | D,2 C,4 A,,2- | A,,2 B,,2 B,,2 C,2 | C,2 F,6 | A,2 G,2 F,2 z2 | %5
 A,2 G,2 C,2 F,2 | E,2 D,2 B,,2 C,2 | C,2 F,6- | F,2 F,2- F,F, F,2 | F,2 C,2- C,C, C,2 | %10
 C,2 B,,4 B,,2- | B,,2 F,4 F,,2- | F,,2 A,,6 | A,,2 D,4 B,,2- | B,,2 C,4 C,2- | C,2 F,6- | %16
 F,2 z2 z4 |] %17

